src/assets/bell-icon.svg

<svg width="22" height="28" viewBox="0 0 22 28" fill="none" xmlns="http://www.w3.org/2000/svg">
<path d="M11.0252 2.63751C6.88773 2.63751 3.52523 6.00001 3.52523 10.1375V13.75C3.52523 14.5125 3.20023 15.675 2.81273 16.325L1.37523 18.7125C0.487732 20.1875 1.10023 21.825 2.72523 22.375C8.11273 24.175 13.9252 24.175 19.3127 22.375C20.8252 21.875 21.4877 20.0875 20.6627 18.7125L19.2252 16.325C18.8502 15.675 18.5252 14.5125 18.5252 13.75V10.1375C18.5252 6.01251 15.1502 2.63751 11.0252 2.63751Z" stroke="#024EC9" stroke-width="1.5" stroke-miterlimit="10" stroke-linecap="round"/>
<path d="M13.3374 2.99999C12.9499 2.88749 12.5499 2.79999 12.1374 2.74999C10.9374 2.59999 9.7874 2.68749 8.7124 2.99999C9.0749 2.07499 9.9749 1.42499 11.0249 1.42499C12.0749 1.42499 12.9749 2.07499 13.3374 2.99999Z" stroke="#024EC9" stroke-width="1.5" stroke-miterlimit="10" stroke-linecap="round" stroke-linejoin="round"/>
<path d="M14.7749 22.825C14.7749 24.8875 13.0874 26.575 11.0249 26.575C9.9999 26.575 9.0499 26.15 8.3749 25.475C7.6999 24.8 7.2749 23.85 7.2749 22.825" stroke="#024EC9" stroke-width="1.5" stroke-miterlimit="10"/>
</svg>

<svg width="22" height="28" fill="none" xmlns="http://www.w3.org/2000/svg"><path d="M11.025 2.638a7.506 7.506 0 00-7.5 7.5v3.612c0 .762-.325 1.925-.712 2.575l-1.438 2.387c-.887 1.476-.275 3.113 1.35 3.663 5.388 1.8 11.2 1.8 16.588 0 1.512-.5 2.175-2.288 1.35-3.663l-1.438-2.387c-.375-.65-.7-1.813-.7-2.575v-3.613c0-4.124-3.375-7.5-7.5-7.5z" stroke="#024EC9" stroke-width="1.5" stroke-miterlimit="10" stroke-linecap="round"/><path d="M13.337 3a8.442 8.442 0 00-4.625 0 2.482 2.482 0 012.313-1.575c1.05 0 1.95.65 2.312 1.575z" stroke="#024EC9" stroke-width="1.5" stroke-miterlimit="10" stroke-linecap="round" stroke-linejoin="round"/><path d="M14.775 22.825a3.761 3.761 0 01-3.75 3.75 3.763 3.763 0 01-2.65-1.1 3.763 3.763 0 01-1.1-2.65" stroke="#024EC9" stroke-width="1.5" stroke-miterlimit="10"/></svg>
